X: 35922
T: Sandyburn, The
R: reel
M: 4/4
K: Amajor
E2|:A2 (EA) dcBA|e2 (cA) a2 A2|agfe ^decA|B2 E2 d2 E2|
A2 (EA) dcBA|e2 (cA) a2 A2|agfe Bcde|1 c2 A2 A2 E2:|2 c2 A2 A2 e2||
|:a2 ee (c'2 e2)|e'2 e2 a2 e2|agfe ^dece|B2 e2 g2 e2|
a2 ee (c'2 e2)|e'2 e2 a2 e2|agfe Bcde|1 c2 A2 A2 e2:|2 c2 A2 A2 E2||
|:A2 (EA) dcBA|EAce fecA|EGBd gf e2|(ge)be gedB|
A2 (EA) dcBA|EAce fecA|agfe Bcde|1 c2 A2 A2 E2:|2 c2 A2 A2 e2||
|:agae c'ee'e|agfe c2 A2|agfe ^dece|Bege bege|
ceae c'ee'e|agfe c2 A2|agfe Bcde|1 c2 A2 A2 e2:|2 c2 A2 A4||

